docs/local/img/sprites/Facebook.svg

<svg width="32" height="32" viewBox="0 0 32 32" fill="none" xmlns="http://www.w3.org/2000/svg">
<g clip-path="url(#clip0_93_1422)">
<path d="M32 16C32 7.16344 24.8366 0 16 0C7.16344 0 0 7.16344 0 16C0 23.9859 5.85094 30.6053 13.5 31.8056V20.625H9.4375V16H13.5V12.475C13.5 8.465 15.8888 6.25 19.5434 6.25C21.2934 6.25 23.125 6.5625 23.125 6.5625V10.5H21.1075C19.12 10.5 18.5 11.7334 18.5 13V16H22.9375L22.2281 20.625H18.5V31.8056C26.1491 30.6053 32 23.9859 32 16Z" fill="#1877F2"/>
<path d="M22.2281 20.625L22.9375 16H18.5V13C18.5 11.7347 19.12 10.5 21.1075 10.5H23.125V6.5625C23.125 6.5625 21.2941 6.25 19.5434 6.25C15.8888 6.25 13.5 8.465 13.5 12.475V16H9.4375V20.625H13.5V31.8056C15.1566 32.0648 16.8434 32.0648 18.5 31.8056V20.625H22.2281Z" fill="white"/>
</g>
<defs>
<clipPath id="clip0_93_1422">
<rect width="32" height="32" fill="white"/>
</clipPath>
</defs>
</svg>

<svg width="32" height="32" viewBox="0 0 32 32" fill="none" xmlns="http://www.w3.org/2000/svg"><g clip-path="url(#clip0_93_1422)"><path d="M32 16c0-8.837-7.163-16-16-16S0 7.163 0 16c0 7.986 5.85 14.605 13.5 15.806V20.625H9.437V16H13.5v-3.525c0-4.01 2.389-6.225 6.043-6.225 1.75 0 3.582.313 3.582.313V10.5h-2.017c-1.988 0-2.608 1.233-2.608 2.5v3h4.438l-.71 4.625H18.5v11.18C26.15 30.606 32 23.986 32 16z" fill="#1877F2"/><path d="M22.228 20.625l.71-4.625H18.5v-3c0-1.265.62-2.5 2.608-2.5h2.017V6.562s-1.83-.312-3.582-.312c-3.654 0-6.043 2.215-6.043 6.225V16H9.437v4.625H13.5v11.18c1.657.26 3.343.26 5 0v-11.18h3.728z" fill="#fff"/></g><defs><clipPath id="clip0_93_1422"><path fill="#fff" d="M0 0h32v32H0z"/></clipPath></defs></svg>
